source/svgs/bowtie/uE014-checkbox-check-none.svg

<svg xmlns="http://www.w3.org/2000/svg" viewBox="0 0 448 448" enable-background="new 0 0 448 448"><path d="M448 448h-352v-352h352v352zm-320-32h288v-288h-288v288zm-32-96h-64v-288h288v64h32v-96h-352v352h96v-32z"/></svg>

<svg xmlns="http://www.w3.org/2000/svg" viewBox="0 0 448 448"><path d="M448 448H96V96h352v352zm-320-32h288V128H128v288zm-32-96H32V32h288v64h32V0H0v352h96v-32z"/></svg>
